docs/themes/v2/source/images/favicon.svg

<svg fill="none" height="30" viewBox="0 0 31 30" width="31" xmlns="http://www.w3.org/2000/svg"><path clip-rule="evenodd" d="m8.4444 8.42013h-8.4444v-8.42013h8.4444zm21.5806.00004h-8.4444v-8.4201368h8.4444zm-30.025 21.51833h8.4444v-8.4202h-8.4444zm30.025 0h-8.4444v-8.4202h8.4444zm-27.21061-21.51822h2.8148v13.09802h-2.8148zm24.39551 0h-2.8148v13.09802h2.8148zm-18.76529-5.61335h13.13569v2.80671h-13.13569zm13.13569 21.51767h-13.13569v2.8067h13.13569z" fill="#ff7557" fill-rule="evenodd"/></svg>

<svg width="31" height="30" viewBox="0 0 31 30" fill="none" xmlns="http://www.w3.org/2000/svg">
<path fill-rule="evenodd" clip-rule="evenodd" d="M8.4444 8.42013H0V0H8.4444V8.42013ZM30.025 8.42017H21.5806V3.32022e-05H30.025V8.42017ZM0 29.9385H8.4444V21.5183H0V29.9385ZM30.025 29.9385H21.5806V21.5183H30.025V29.9385ZM2.81439 8.42028H5.62919V21.5183H2.81439V8.42028ZM27.2099 8.42028H24.3951V21.5183H27.2099V8.42028ZM8.44461 2.80693H21.5803V5.61364H8.44461V2.80693ZM21.5803 24.3246H8.44461V27.1313H21.5803V24.3246Z" fill="#FF7557"/>
</svg>
